X: 9
T: The Heather Breeze
R: reel
M: 4/4
L: 1/8
K: Gmaj
|:DGBG dGBG|DFAF cFAF|DGBG dGBG|BdcA dBcA|
DGBG dGBG|DFAF cFAF|DGBG dGBG|BdcA BG G2||
|:g3f gbag|f3e fgaf|g3f gbag|fdcA dBcA|
g3f gbag|f3e fgaf|g3f gbag|fdcA BG G2||


Tune 411	Setting 24947

